!!!COM: Joplin, Scott
!!!CDT: 1868/11/24/-1917/04/01/
!!!OTL: Weeping Willow
!!!ONB: Rag
!!!ODT: 1903///
**kern	**kern	**dynam
*staff2	*staff1	*staff1/2
*Ipiano	*Ipiano	*Ipiano
*>[I,A,A1,A,A2,B,B1,B,B2,C,D,D1,D,D2,E,E1,E,E2]	*>[I,A,A1,A,A2,B,B1,B,B2,C,D,D1,D,D2,E,E1,E,E2]	*>[I,A,A1,A,A2,B,B1,B,B2,C,D,D1,D,D2,E,E1,E,E2]
*>norep[I,A,A2,B,B2,C,D,D2,E,E2]	*>norep[I,A,A2,B,B2,C,D,D2,E,E2]	*>norep[I,A,A2,B,B2,C,D,D2,E,E2]
*>I	*>I	*>I
*clefF4	*clefG2	*clefG2
*k[f#]	*k[f#]	*k[f#]
*M2/4	*M2/4	*M2/4
*MM100	*MM100	*MM100
=1-	=1-	=1-
*	*^	*
2r	16ddLL	16dLL	f
.	16cc#	16c#	.
.	16dd	16d	.
.	16eeJJ	16eJJ	.
.	8ff#L	8f#L	.
.	8ggJ	8gJ	.
=2	=2	=2	=2
2r	8ddL	8dL	.
.	[8ddJ	[8dJ	.
.	16ddLL]	16dLL]	.
.	16ee	16e	.
.	16cc	16c	.
.	16aJJ	16AJJ	.
*	*v	*v	*
=3	=3	=3
16GLL	16gLL	.
16F#	16f#	.
16G	16g	.
16AJJ	16aJJ	.
8BL	8bL	.
8cJ	8ccJ	.
=4	=4	=4
8DL	8dL	.
[8DJ	[8dJ	.
16D]	16dLL]	.
16r	16g	.
8r	16a	.
.	16bJJ	.
=5!|:	=5!|:	=5!|:
*>A	*>A	*>A
8GGL	4dd b g	f
8BJ G D	.	.
8DDL	4gg b g	.
8BJ G D	.	.
=6	=6	=6
*	*^	*
8GGL	16bLL g	4r	.
.	16a#	.	.
8BJ G D	16b g	.	.
.	[16ddJJ [b [g [fn	.	.
8BBL	16dd]LK b] g] f]	16r	.
.	8dd	8.b g f	.
8BJ G D	.	.	.
.	16eeJk	.	.
=7	=7	=7	=7
*^	*	*	*
8CL	4C	16ddLK	8.gL e	.
.	.	8cc	.	.
8cJ G E	.	.	.	.
.	.	[16gJk	[16eJk	.
8CL	4C	16gLK]	16eLK]	.
.	.	8a	8.e-J	.
8cJ G E-	.	.	.	.
.	.	16gJk	.	.
*v	*v	*	*	*
*	*v	*v	*
=8	=8	=8
8GGL	16bLL d	.
.	16g	.
8BJ G D	16e	.
.	[16dJJ	.
8B G D	16dLL]	.
.	16g	.
8r	16a	.
.	16bJJ	.
=9	=9	=9
8GGL	4dd b g	.
8BJ G D	.	.
8EEL	4gg b g	.
8BJ G E	.	.
=10	=10	=10
8AAL	16ff#LL dd	.
.	16ee#	.
8dJ A F#	16ff# dd	.
.	[16aaJJ [ff# [dd	.
8FF#L	16aa]LL ff#] dd]	.
.	16dd	.
8dJ A F#	16ff#	.
.	16aaJJ	.
=11	=11	=11
*	*^	*
8EEL	16bbLL	4.cc#	.
.	16gg	.	.
8c#J A G	16ee	.	.
.	[16cc#JJ	.	.
8AAL	16cc#LL]	.	.
.	16a	.	.
8c#J A G	16b	8g	.
.	16cc#JJ	.	.
*	*v	*v	*
=12	=12	=12
8dL A D	[4dd [f#	.
8A AA	.	.
8DJ DD	8dd]L f#]	.
8r	16gL	.
.	16aJJ	.
=13	=13	=13
8GGL	4dd b g	.
8BJ G D	.	.
8DDL	4gg b g	.
8BJ G D	.	.
=14	=14	=14
*	*^	*
8GGL	16bLL g	4r	.
.	16a#	.	.
8BJ G D	16b g	.	.
.	[16ddJJ [b [g [fn	.	.
8BBL	16dd]LK b] g] f]	16r	.
.	8dd	8.b g f	.
8BJ D	.	.	.
.	16eeJk	.	.
=15	=15	=15	=15
8CL	16ddLK	8.gL e	.
.	8cc	.	.
8cJ G E	.	.	.
.	[16gJk	[16eJk	.
8CL	16gLK]	16eLK]	.
.	8a	8.e-J	.
8cJ G E	.	.	.
.	16gJk	.	.
*	*v	*v	*
=16	=16	=16
8GGL	16bLL d	.
.	16g	.
8B G D	16e	.
.	[16dJJ	.
8BJ G D	16dLL]	.
.	16b	.
8r	16a#	.
.	16bJJ	.
=17	=17	=17
8F#L	4dd# b	.
8BJ A	.	.
8BBL	8.ff#L dd# b	.
8BJ A	.	.
.	16aaJk	.
=18	=18	=18
*	*^	*
8EL	16aaLL	8.eeL b	.
.	16gg	.	.
8BJ G	16ff#	.	.
.	[16ggJJ	[16a#Jk	.
8C#L	16ggLL]	4a#]	.
.	16gg	.	.
8A#J G E	16ff#	.	.
.	16eeJJ	.	.
*	*v	*v	*
=19	=19	=19
8DL	16eeLL b	.
.	16dd	.
8BJ G	16cc#	.
.	[16ddJJ	.
8DL	16ddLL]	.
.	16ccn	.
8cJ A F#	16a	.
.	16f#JJ	.
=20	=20	=20
*>A1	*>A1	*>A1
*^	*	*
[4B	8GL	[4g	.
.	8DJ	.	.
16B]	8EL	16gLL]	.
16r	.	16g	.
8r	8DJ	16a	.
.	.	16bJJ	.
*v	*v	*	*
=21:|!	=21:|!	=21:|!
*>A2	*>A2	*>A2
8B G	8gL	.
8r	16dddL dd	.
.	16dddJJ dd	.
8BL BB	8dddL dd	.
8G#J GG#	8bbJ ee# dd	.
=22!|:	=22!|:	=22!|:
*>B	*>B	*>B
8AL AA	[4ccc [ff# [dd	f
8cJ F# D	.	.
8F#L FF#	16ccc]LL ff#] dd]	.
.	16bJ g#	.
8cJ F# D	8ccJ a	.
=23	=23	=23
8DL DD	16g#LK e#	.
.	8a f#	.
8cJ F# D	.	.
.	16bJk g#	.
8F#L FF#	8ccL a	.
8cJ F# D	8eeJ cc	.
=24	=24	=24
8GL GG	16cc#LK a#	.
.	8dd b	.
8BJ G D	.	.
.	[16bbJk [gg [dd	.
8DL DD	16bb]LL gg] dd]	.
.	16aa# gg cc#	.
8BJ G D	16bb gg dd	.
.	[16ggJJ [dd [b	.
=25	=25	=25
8GL GG	16gg]LL dd] b]	.
.	16ff#J	.
8FnJ FFn	8ggJ dd b	.
8EL EE	16ff#LK	.
.	8gg dd b	.
8DJ DD	.	.
.	[16gJk	.
=26	=26	=26
8CL CC	16gLL]	.
.	16g	.
8eJ c G	16cc	.
.	16eeJJ	.
8EL EE	8ggL cc g	.
8E-J EE-	16aaL cc a	.
.	[16ggJJ [b [g	.
=27	=27	=27
*	*^	*
8DL DD	4r	16gg]LL b] g]	.
.	.	16b	.
8dJ B G	.	16dd	.
.	.	16eeJJ	.
8GL GG	16eeLL	8bL fn	.
.	16dd	.	.
8BBJ BBB	16ee	8gJ f	.
.	16ddJJ	.	.
*	*v	*v	*
=28	=28	=28
8CL CC	16ccLL g e	.
.	16g	.
8eJ c G	16cc	.
.	16eeJJ	.
8EL EE	8ggL cc g	.
8E-J EE-	16aaL cc a	.
.	[16bbJJ [gg [dd [b	.
=29	=29	=29
8DL DD	16bb]LL gg] dd] b]	.
.	16ggJ	.
8dJ B G	8bbJ	.
8GL GG	8dddL bb gg dd	.
8G#J GG#	8bbJ ee# dd	.
=30	=30	=30
8AL AA	[4ccc [ff# [dd	.
8cJ F# D	.	.
8F#L FF#	16ccc]LL ff#] dd]	.
.	16bJ g#	.
8cJ F# D	8ccJ a	.
=31	=31	=31
8DL DD	16g#LK e#	.
.	8a f#	.
8cJ F# D	.	.
.	16bJk g#	.
8F#L FF#	8ccL a	.
8cJ F# D	8eeJ cc	.
=32	=32	=32
8GL GG	16cc#LK a#	.
.	8dd b	.
8BJ G D	.	.
.	[16bbJk [gg [dd	.
8DL DD	16bb]LL gg] dd]	.
.	16aa# gg cc#	.
8BJ G D	16bb gg dd	.
.	[16ggJJ [dd [b	.
=33	=33	=33
8GL GG	16gg]LL dd] b]	.
.	16ff#J	.
8FnJ FFn	8ggJ dd b	.
8EL EE	16ff#LK	.
.	8gg dd b	.
8DJ DD	.	.
.	[16gJk	.
=34	=34	=34
8CL CC	16gLL]	.
.	16g	.
8eJ c G	16cc	.
.	16eeJJ	.
8EL EE	8ggL cc g	.
8E-J EE-	16aaL cc a	.
.	[16ggJJ [b [g	.
=35	=35	=35
*	*^	*
8DL DD	16ggLL]	4b] g]	.
.	16ee	.	.
8GJ GG	16dd	.	.
.	16bJJ	.	.
4B G E BB	16eLL	4d	.
.	16b	.	.
.	16g	.	.
.	16eJJ	.	.
*	*v	*v	*
=36	=36	=36
8AL AA	4g c#	.
8EJ EE	.	.
4D DD	16aLK f# d cn	.
.	8a f# d c	.
.	[16gJk [d [B	.
=37	=37	=37
*>B1	*>B1	*>B1
8G GG	8g]L d] B]	.
8r	16dddL dd	.
.	16dddJJ dd	.
8BL BB	8dddL dd	.
8G#J GG#	8bbJ ee# dd	.
=38:|!	=38:|!	=38:|!
*>B2	*>B2	*>B2
8GL GG	[4g [d [B	.
8DJ	.	.
8EL	16g]LL d] B]	.
.	16g	.
8DJ	16a	.
.	16bJJ	.
=39	=39	=39
*>C	*>C	*>C
8GGL	4dd b g	f
8BJ G D	.	.
8DDL	4gg b g	.
8BJ G D	.	.
=40	=40	=40
*	*^	*
8GGL	16bLL g	4r	.
.	16a#	.	.
8BJ G D	16b g	.	.
.	[16ddJJ [b [g [fn	.	.
8BBL	16dd]LK b] g] f]	16r	.
.	8dd	8.b g f	.
8BJ G D	.	.	.
.	16eeJk	.	.
=41	=41	=41	=41
8CL	16ddLK	8.gL e	.
.	8cc	.	.
8cJ G E	.	.	.
.	[16gJk	[16eJk	.
8CL	16gLK]	16eLK]	.
.	8a	8.e-J	.
8cJ G E-	.	.	.
.	16gJk	.	.
*	*v	*v	*
=42	=42	=42
8GGL	16bLL d	.
.	16g	.
8B G D	16e	.
.	[16dJJ	.
8BJ G D	16dLL]	.
.	16g	.
8r	16a	.
.	16bJJ	.
=43	=43	=43
8GGL	4dd b g	.
8BJ G D	.	.
8EEL	4gg b g	.
8BJ G E	.	.
=44	=44	=44
8AAL	16ff#LL dd	.
.	16ee#	.
8dJ A F#	16ff# dd	.
.	[16aaJJ [ff# [dd	.
8FF#L	16aa]LL ff#] dd]	.
.	16dd	.
8dJ A F#	16ff#	.
.	16aaJJ	.
=45	=45	=45
*	*^	*
8EEL	16bbLL	4.cc#	.
.	16gg	.	.
8c#J A G	16ee	.	.
.	[16cc#JJ	.	.
8AAL	16cc#LL]	.	.
.	16a	.	.
8c#J A	16b	8g	.
.	16cc#JJ	.	.
*	*v	*v	*
=46	=46	=46
8dL A D	[4dd [f#	.
8A AA	.	.
8DJ DD	8dd]L f#]	.
8r	16gL	.
.	16bJJ	.
=47	=47	=47
8GGL	4dd b g	.
8BJ G D	.	.
8DDL	4gg b g	.
8BJ G D	.	.
=48	=48	=48
*	*^	*
8GGL	16bLL g	4r	.
.	16a#	.	.
8BJ G D	16b g	.	.
.	[16ddJJ [b [g [fn	.	.
8BBL	16dd]LK b] g] f]	16r	.
.	8dd	8.b g f	.
8BJ G D	.	.	.
.	16eeJk	.	.
=49	=49	=49	=49
8CL	16ddLK	8.gL e	.
.	8cc	.	.
8cJ G E	.	.	.
.	16gJk	[16eJk	.
8CL	16gLK	16eLK]	.
.	8a	8.e-J	.
8cJ G E-	.	.	.
.	16gJk	.	.
*	*v	*v	*
=50	=50	=50
8GGL	16bLL d	.
.	16g	.
8B G D	16e	.
.	[16dJJ	.
8BJ G D	16dLL]	.
.	16b	.
8r	16a#	.
.	16bJJ	.
=51	=51	=51
8F#L	4dd# b	.
8BJ A	.	.
8BBL	8.ff#L dd# b	.
8BJ A	.	.
.	16aaJk	.
=52	=52	=52
*	*^	*
8CL	16aaLL	8.eeL b	.
.	16gg	.	.
8BJ G	16ff#	.	.
.	[16ggJJ	[16a#Jk	.
8C#L	16ggLL]	4a#]	.
.	16gg	.	.
8A#J G E	16ff#	.	.
.	16eeJJ	.	.
*	*v	*v	*
=53	=53	=53
8DL	16eeLL b	.
.	16dd	.
8BJ G	16cc#	.
.	[16ddJJ	.
8DL	16ddLL]	.
.	16ccn	.
8cJ A F#	16a	.
.	16f#JJ	.
=54	=54	=54
8B G	8g	.
8r	8r	.
8G GG	8gg dd b g	.
8r	8r	.
=55	=55	=55
*>D	*>D	*>D
*k[]	*k[]	*k[]
*	*^	*
8CL	16eLL	[4e	mf
.	16g	.	.
8cJ G E	16cc	.	.
.	16ddJJ	.	.
8GGL	16eeLK	8.eL]	.
.	8gg	.	.
8cJ G E	.	.	.
.	[16eeJk	[16g#Jk	.
*	*v	*v	*
=56	=56	=56
8BBL	16ee]LL g#]	.
.	16dd#J	.
8dJ G# E	8eeJ g#	.
8EEL	8ffL g#	.
8dJ G# E	16eeL g#	.
.	[16ccJJ [a	.
=57	=57	=57
8AAL	16cc]LL a]	.
.	16bJ	.
8cJ A E	8ccJ a	.
8GL GG	16ccLK b- e	.
.	8cc b- e	.
8CJ CC	.	.
.	[16ccJk [a [f	.
=58	=58	=58
8FL FF	4cc_ a_ f_	.
8cJ A	.	.
8CL	16cc]LL a] f]	.
.	16a	.
8cJ A	16cc	.
.	16ffJJ	.
=59	=59	=59
8FL FF	8aaL ff cc	.
8fJ c A	8aaJ ff cc	.
8FL FF	8aaL ff cc	.
8F#J FF#	8aa-J dd cc#	.
=60	=60	=60
8GL GG	8.ggL ee cc	.
8eJ c G	.	.
.	16eeJk	.
8AL AA	16ccLL	.
.	16dd	.
8eJ c A	16ee	.
.	(16ccJJ	.
=61	=61	=61
8BBL	16bLL	.
.	16bb	.
8eJ B G	16gg	.
.	[16eeJJ)	.
8BBL	16eeLL]	.
.	(16gg	.
8d#J B A	16ff#	.
.	16dd#JJ)	.
=62	=62	=62
*^	*	*
4r	8e B G E	8ee	.
.	8r	8r	.
4B G F	8DL	4gg g	.
.	8GGJ	.	.
*v	*v	*	*
=63	=63	=63
*	*^	*
8CL	16eLL	[4e	.
.	16g	.	.
8cJ G E	16cc	.	.
.	16ddJJ	.	.
8GGL	16eeLK	8.eL]	.
.	8gg	.	.
8cJ G E	.	.	.
.	[16eeJk	[16g#Jk	.
*	*v	*v	*
=64	=64	=64
8BBL	16ee]LL g#]	.
.	16dd#J	.
8dJ G# E	8eeJ g#	.
8EEL	8ffL g#	.
8dJ G# E	16eeL g#	.
.	[16ccJJ [a	.
=65	=65	=65
8AAL	16cc]LL a]	.
.	16bJ	.
8cJ A E	8ccJ a	.
8GL GG	16ccLK b- e	.
.	8cc b- e	.
8CJ CC	.	.
.	[16ccJk [a [f	.
=66	=66	=66
8FL FF	4cc_ a_ f_	.
8cJ A	.	.
8CL	16cc]LL a] f]	.
.	16a	.
8cJ A	16cc	.
.	16ffJJ	.
=67	=67	=67
8FL FF	8aaL ff cc	.
8fJ c A	8aaJ ff cc	.
8FL FF	8aaL ff cc	.
8F#J FF#	8aa-J dd# cc	.
=68	=68	=68
8GL GG	8.ggL ee cc	.
8eJ c G	.	.
.	16eeJk	.
8AL AA	16ccLL	.
.	16ddJ	.
8eJ c A	8eeJ	.
=69	=69	=69
8dL D	4cc f#	.
8AJ AA	.	.
4G GG	16ddLK b fn	.
.	8dd b f	.
.	[16ccJk [g [e	.
=70	=70	=70
*>D1	*>D1	*>D1
8cL C	8cc]L g] e]	.
8GGJ	8gJ	.
8AAL	8f#L	.
8BBJ	8fnJ	.
=71:|!	=71:|!	=71:|!
*>D2	*>D2	*>D2
8c C	8ccL g e	.
8r	(16gL	.
.	16aJJ)	.
4r	(16bLL	<
.	16cc	.
.	16dd	.
.	16eeJJ)	.
=72!|:	=72!|:	=72!|:
*>E	*>E	*>E
8gL G	4dd b	f
8f F	.	.
8d D	[4gg [b	.
8BJ BB	.	.
=73	=73	=73
8GL GG	16gg]LL b]	.
.	16dd	.
8G#J GG#	16bb b	.
.	16ddJJ	.
8AL AA	16ffLL	.
.	16aa	.
8BJ BB	16gg	.
.	16ffJJ	.
=74	=74	=74
8cL C	16eeLL	.
.	16dd#	.
8eJ c G	16ee	.
.	[16ggJJ	.
8EL	4gg]	.
8eJ c G	.	.
=75	=75	=75
4d# c A F#	16ccLL	.
.	16dd#	.
.	16ff#	.
.	16aaJJ	.
8e c G	16ggLL	.
.	16ee	.
8r	16gg	.
.	16cccJJ	.
=76	=76	=76
8dL D	8cccL ff dd	.
8fJ B G	16bbL ff dd	.
.	[16bbJJ [ff [dd	.
8GL GG	16bb]LL ff] dd]	.
.	16aa#J ff dd	.
8fJ B G	8bbJ ff dd	.
=77	=77	=77
(16BLL BB	[4ff [dd	.
16B- BB-	.	.
16A AA	.	.
16A-JJ AA-	.	.
8GL) GG	16ff]LL dd]	.
.	16dd	.
8fJ Bn G	16ff	.
.	16bbJJ	.
=78	=78	=78
8cL C	8bbL ee cc	.
8eJ c G	16aaL ee cc	.
.	[16aaJJ [ee [cc	.
8GL GG	16aa]LL ee] cc]	.
.	16gg#J ee cc	.
8eJ c G	8aaJ ee cc	.
=79	=79	=79
(16cLL C	[4ee [cc	.
16B BB	.	.
16A AA	.	.
16A-JJ AA-	.	.
8G) GG	16ee]LL cc]	.
.	16g	.
8r	16cc	.
.	16eeJJ	.
=80	=80	=80
8gL G	4dd b	.
8f F	.	.
8d D	[4gg [b	.
8BJ BB	.	.
=81	=81	=81
8GL GG	16gg]LL b]	.
.	16dd	.
8G#J GG#	16bb b	.
.	16ddJJ	.
8AL AA	16ffLL	.
.	16aa	.
8BJ BB	16gg	.
.	16ffJJ	.
=82	=82	=82
*	*^	*
8BL BB	16eeLL	4r	.
.	16dd#	.	.
8eJ c G	16ee	.	.
.	[16ggJJ b-	.	.
8EL	16ggLL]	4b-	.
.	16eeJ	.	.
8eJ c B-	8ggJ	.	.
*	*v	*v	*
=83	=83	=83
8FL	[4ff [a	.
8fJ c A	.	.
8CL	16ff]LL a]	.
.	16a	.
8fJ c A	16cc	.
.	16ffJJ	.
=84	=84	=84
8FL FF	8aaL ff cc	.
8fJ c A	8aaJ ff cc	.
8FL FF	8aaL ff cc	.
8F#J FF#	8aa-J dd# cc	.
=85	=85	=85
8GL GG	8.ggL ee cc	.
8eJ c G	.	.
.	16eeJk	.
8AL AA	16ccLL	.
.	16ddJ	.
8eJ c A	8eeJ	.
=86	=86	=86
8dL D	4cc f#	.
8AJ AA	.	.
4G GG	16ddLK b fn	.
.	8dd b f	.
.	[16ccJk [g [e	.
=87	=87	=87
*>E1	*>E1	*>E1
8c C	8cc]L g] e]	.
8r	16gL	.
.	16aJJ	.
4r	(16bLL	.
.	16cc	.
.	16dd	.
.	16eeJJ)	.
=88:|!	=88:|!	=88:|!
*>E2	*>E2	*>E2
8cL C	4cc g e	.
8GJ GG	.	.
8C CC	8ccc gg ee cc	.
8r	8r	.
==	==	==
*-	*-	*-
!!!ENC: Craig Stuart Sapp
!!!END: 2005/01/20/
